icons/box-filled.svg

<svg xmlns="http://www.w3.org/2000/svg" width="24" height="24" viewBox="0 0 24 24">
    <path fill="#3A3A47" fill-rule="evenodd" d="M22 8v11.983c0 1.307-.667 1.973-2 1.998-1.333.025-6.667.025-16 0-1.333 0-2-.666-2-1.998V8h9v1c0 .62.288.952.862.996L12 10c.666 0 1-.333 1-1L12.998 8H22zm-10 8H6c-.667 0-1 .333-1 1 0 .618.287.949.862.993l.138.005h6c.667 0 1-.333 1-.999 0-.666-.333-.999-1-.999zm-3-4H6c-.667 0-1 .333-1 1 0 .618.287.949.862.993l.138.005h3c.667 0 1-.333 1-.999 0-.666-.333-.999-1-.999zM19 2c.486 0 .855.333 1.107.999L21.618 6h-8.619V2H19zm-8 4H2.384l1.49-3.001C4.14 2.333 4.514 2 5 2h6v4z"/>
</svg>

<svg width="24" height="24" viewBox="0 0 24 24" fill="none" xmlns="http://www.w3.org/2000/svg">
<path fill-rule="evenodd" clip-rule="evenodd" d="M13 8H22V19.983C22 21.29 21.333 21.956 20 21.981C18.667 22.006 13.333 22.006 4 21.981C2.667 21.981 2 21.315 2 19.983V8H11V9C11 9.668 11.334 10 12 10C12.666 10 13 9.668 13 9V8ZM11 6H2.385L3.875 2.999C4.14 2.333 4.514 2 5 2H19C19.486 2 19.855 2.333 20.107 2.999L21.617 6H13V2H11V6ZM6 16C5.333 16 5 16.333 5 17C5 17.665 5.333 17.998 6 17.998H12C12.667 17.998 13 17.665 13 16.999C13 16.333 12.667 16 12 16H6ZM6 12C5.333 12 5 12.333 5 13C5 13.665 5.333 13.998 6 13.998H9C9.667 13.998 10 13.665 10 12.999C10 12.333 9.667 12 9 12H6Z" fill="#3A3A47"/>
</svg>
